packages/foundations/assets/icons/functional/images/file/cloud_download.svg

<svg xmlns="http://www.w3.org/2000/svg" width="32" height="32" fill="none"><path fill="#1A1C1F" fill-rule="evenodd" d="M18.32 2.854a8.5 8.5 0 0 0-3.07 1.26c-.487.325-1.442 1.215-1.787 1.667l-.16.208-.478-.1c-.661-.139-2.001-.14-2.638-.002a6.57 6.57 0 0 0-4.144 2.844c-.34.518-.504.871-.737 1.58l-.172.524-.36.241c-.852.572-1.654 1.508-2.138 2.497-1.535 3.14-.187 6.795 3.108 8.423.565.28 1.341.534 1.976.646.667.119 2.104.165 2.462.079.324-.077.624-.312.733-.572.177-.424.01-.981-.37-1.232-.212-.14-.238-.144-1.341-.179-.968-.03-1.191-.054-1.604-.169-.942-.263-1.65-.665-2.286-1.298-2.049-2.043-1.627-5.2.902-6.746.643-.392.735-.513.879-1.147.222-.983.628-1.713 1.317-2.37a4.4 4.4 0 0 1 1.681-1.015c.898-.301 2.01-.295 2.867.017.57.207.937.245 1.196.122.224-.107.367-.272.735-.852.313-.494.942-1.164 1.402-1.494.593-.425 1.404-.774 2.187-.941.479-.101 1.618-.088 2.156.027 1.263.268 2.46 1.025 3.22 2.038.886 1.181 1.238 2.468 1.097 4.007-.06.647-.057.722.031.917.12.265.211.346.764.674 1.892 1.122 2.69 3.208 1.978 5.175-.387 1.07-1.352 2.078-2.477 2.587-.737.334-1.265.434-2.48.47-1.075.033-1.101.036-1.313.176-.464.308-.585.996-.248 1.418.298.375.446.413 1.565.409 1.491-.006 2.456-.227 3.647-.837 3.004-1.538 4.35-4.965 3.121-7.946-.455-1.103-1.363-2.247-2.277-2.867l-.275-.186-.001-.667c-.006-2.509-1.225-4.807-3.279-6.18a7.6 7.6 0 0 0-2.696-1.154c-.565-.125-2.127-.155-2.693-.052m-2.809 12.04c-.233.142-.378.32-.462.567-.046.133-.062 1.552-.062 5.28v5.098l-.974-.967c-.535-.532-1.032-.997-1.104-1.034-.181-.092-.639-.083-.83.016-.207.108-.431.347-.502.536-.083.22-.069.604.029.799.119.237 3.682 3.808 3.925 3.935.244.127.677.135.912.017.245-.123 3.809-3.684 3.94-3.937.233-.449.046-1.063-.402-1.315-.246-.138-.69-.153-.922-.03-.084.044-.572.502-1.086 1.018l-.933.938-.027-5.161c-.025-4.96-.03-5.169-.129-5.368-.232-.468-.926-.666-1.373-.392"/></svg>

<svg width="32" height="32" viewBox="0 0 32 32" fill="none" xmlns="http://www.w3.org/2000/svg"><path d="M18.320 2.854 C 17.285 3.044,16.167 3.502,15.250 4.114 C 14.763 4.439,13.808 5.329,13.463 5.781 L 13.303 5.989 12.825 5.889 C 12.164 5.750,10.824 5.749,10.187 5.887 C 8.467 6.260,7.007 7.262,6.043 8.731 C 5.703 9.249,5.539 9.602,5.306 10.311 L 5.134 10.835 4.774 11.076 C 3.922 11.648,3.120 12.584,2.636 13.573 C 1.101 16.713,2.449 20.368,5.744 21.996 C 6.309 22.276,7.085 22.530,7.720 22.642 C 8.387 22.761,9.824 22.807,10.182 22.721 C 10.506 22.644,10.806 22.409,10.915 22.149 C 11.092 21.725,10.925 21.168,10.545 20.917 C 10.333 20.777,10.307 20.773,9.204 20.738 C 8.236 20.708,8.013 20.684,7.600 20.569 C 6.658 20.306,5.950 19.904,5.314 19.271 C 3.265 17.228,3.687 14.071,6.216 12.525 C 6.859 12.133,6.951 12.012,7.095 11.378 C 7.317 10.395,7.723 9.665,8.412 9.008 C 8.902 8.540,9.450 8.209,10.093 7.993 C 10.991 7.692,12.103 7.698,12.960 8.010 C 13.530 8.217,13.897 8.255,14.156 8.132 C 14.380 8.025,14.523 7.860,14.891 7.280 C 15.204 6.786,15.833 6.116,16.293 5.786 C 16.886 5.361,17.697 5.012,18.480 4.845 C 18.959 4.744,20.098 4.757,20.636 4.872 C 21.899 5.140,23.096 5.897,23.856 6.910 C 24.742 8.091,25.094 9.378,24.953 10.917 C 24.893 11.564,24.896 11.639,24.984 11.834 C 25.104 12.099,25.195 12.180,25.748 12.508 C 27.640 13.630,28.438 15.716,27.726 17.683 C 27.339 18.753,26.374 19.761,25.249 20.270 C 24.512 20.604,23.984 20.704,22.769 20.740 C 21.694 20.773,21.668 20.776,21.456 20.916 C 20.992 21.224,20.871 21.912,21.208 22.334 C 21.506 22.709,21.654 22.747,22.773 22.743 C 24.264 22.737,25.229 22.516,26.420 21.906 C 29.424 20.368,30.770 16.941,29.541 13.960 C 29.086 12.857,28.178 11.713,27.264 11.093 L 26.989 10.907 26.988 10.240 C 26.982 7.731,25.763 5.433,23.709 4.060 C 22.852 3.487,22.009 3.126,21.013 2.906 C 20.448 2.781,18.886 2.751,18.320 2.854 M15.511 14.894 C 15.278 15.036,15.133 15.214,15.049 15.461 C 15.003 15.594,14.987 17.013,14.987 20.741 L 14.987 25.839 14.013 24.872 C 13.478 24.340,12.981 23.875,12.909 23.838 C 12.728 23.746,12.270 23.755,12.079 23.854 C 11.872 23.962,11.648 24.201,11.577 24.390 C 11.494 24.610,11.508 24.994,11.606 25.189 C 11.725 25.426,15.288 28.997,15.531 29.124 C 15.775 29.251,16.208 29.259,16.443 29.141 C 16.688 29.018,20.252 25.457,20.383 25.204 C 20.616 24.755,20.429 24.141,19.981 23.889 C 19.735 23.751,19.291 23.736,19.059 23.859 C 18.975 23.903,18.487 24.361,17.973 24.877 L 17.040 25.815 17.013 20.654 C 16.988 15.694,16.983 15.485,16.884 15.286 C 16.652 14.818,15.958 14.620,15.511 14.894 " fill="#1A1C1F" stroke="none" fill-rule="evenodd"></path></svg>
